X:1
T:Title
%%score ( 1 2 ) { 3 | ( 4 5 ) }
L:1/8
Q:1/4=80
M:4/4
K:C
V:1 bass nm="Voice"
V:2 bass 
V:3 treble nm="Piano"
V:4 bass 
V:5 bass 
V:1
"^Nicht zu schnell""^Ich grolle nicht""^Dichterliebe, Op. 48""^Robert Schumann\n(1810-1856)""^Heinrich Heine\n(1797-1856)" z4 z!mf! E, D,>C, | %1
w: Ich grol- le|
 F,4 z F,F,F, | _A,4- A,3 G, | E,4 z4 |[M:4/4] E,2 E,E, B,3 A, | A,4 z4 | A,2 A,A, E3 D | %7
w: nicht, und wenn das|Herz * auch|bricht,|e- wig ver- lor'- nes|Lieb,|e- wig ver- lor'- nes|
 D4- D3 D | D4- D3 C | B,4 z3 G, | G,4- G,3 F, | E,4 z E,E,E, | !>!A,4 z E, E,>E, | %13
w: Lieb! * ich|grol\- * le|nicht, ich|grol\- * le|nicht. Wie du auch|strahlst in Di- a-|
 A,>E, E,2 z ^F,F,F, | B,4 z ^F,F,F, | B,>^F, F,2 z!f! G,G,G, | G,8- | G,4 z4 | z4!f! z E, D,>C, | %19
w: man- ten- pracht, es fällt kein|Strahl in dei \-nes|Her- zens Nacht, das weiss ich|längst.||Ich grol- le|
 F,4 z F,F,F, | _A,4- A,3 G, | E,4 z3!p! E, | E,3 E, B,3 B, | A,2 A,2 z A,A,A, |!<(! x8!<)! | x8 | %26
w: nicht, und wenn das|Herz * auch|bricht. Ich|sah dich ja im|Trau- me, und sah die|||
"^cresc." x4 A3 A |[Q:1/4=77] (G4[Q:1/4=74] F)[Q:1/4=73]F[Q:1/4=72]F[Q:1/4=72]F | FFFF E3 D | %29
w: |||
[Q:1/4=80] C2 x6 | x8 | C,8- | C,4 z4 | z8 | %34
w: ||nicht.|||
[Q:1/4=79] z8[Q:1/4=77][Q:1/4=76][Q:1/4=74][Q:1/4=73][Q:1/4=71][Q:1/4=70][Q:1/4=68] | %35
w: |
[Q:1/4=68] z8 |] %36
w: |
V:2
 x8 | x8 | x8 | x8 |[M:4/4] x8 | x8 | x8 | x8 | x8 | x8 | x8 | x8 | x8 | x8 | x8 | x8 | x8 | x8 | %18
w: ||||||||||||||||||
 x8 | x8 | x8 | x8 | x8 | x8 | A,A,A,A, E3 E | D2 D2 z DDD | DDDD D3 D | (D4 ^C)CCC | CCCC B,3 B, | %29
w: ||||||Nacht in dei- nes Her- zens|Rau- me, und sah die|Schlang', die dir am Her- zen|frisst, * ich sah, mein|Lieb, wie sehr du e- lend|
 C2 z2 z B,B,B, | A,4 z G,G,G, | x8 | x8 | x8 | x8 | x8 |] %36
w: bist. Ich grol- le|nicht, ich grol \-le||||||
V:3
!mf! !>![G,CE][G,CE][G,CE][G,CE] [G,CE][G,CE][G,CE][G,CE] | %1
 !>![F,CF][F,CF][F,CF][F,CF] !>![A,CF][A,CF][A,CF][A,CF] | %2
 !>![_A,CF][A,CF][A,CF][A,CF] !>![G,B,DF][G,B,DF][G,B,DF][G,B,DF] | %3
 !>![G,CE][G,CE][G,CE][G,CE] !>![^G,CE][G,CE][G,CE][G,CE] | %4
[M:4/4] !>![A,CE][A,CE][A,CE][A,CE] [CEB][CEB][CEB][CEB] | %5
 !>![CEA][CEA][CEA][CEA] !>![CGA][CGA][CGA][CGA] | %6
 !>![CFA][CFA][CFA][CFA] !>![FAe][FAe][FAe][FAe] | %7
 !>![FAd][FAd][FAd][FAd] !>![Fcd][Fcd][Fcd][Fcd] | %8
 !>![FBd][FBd][FBd][FBd] !>![D^Fc][DFc][DFc][DFc] | [DGB][DGB][DGB][DGB] [CFA][CFA][CFA][CFA] | %10
 [G,^CEG][G,CEG][G,CEG][G,CEG] [G,DF][G,DF][G,DF][G,DF] | %11
 [G,CE][G,CE][G,CE][G,CE] [G,B,E][G,B,E][G,B,E][G,B,E] | %12
 [CEA][CEA][CEA][CEA]!f! [G,B,E][G,B,E][G,B,E][G,B,E] | %13
 !>![CEA][CEA][CEA][CEA]!f! [^A,^C^F][A,CF][A,CF][A,CF] | %14
 [D^FB][DFB][DFB][DFB]!f! [^A,^CF][A,CF][A,CF][A,CF] | %15
 !>![D^FB][DFB][DFB][DFB] [B,DG][B,D=FG][B,DFG][B,DFG] | %16
 [B,DFG][B,DFG][B,DFG][B,DFG] [CFG][CFG]!<(![CFG][CFG] | %17
 [G,^CEG][G,CEG][G,CEG][G,CEG] [G,DFG][G,DFG][G,DFG]!<)![G,DFG] | %18
!f! [G,CE][G,CE][G,CE][G,CE] [G,CE][G,CE][G,CE][G,CE] | %19
 [F,CF][F,CF][F,CF][F,CF] [A,CF][A,CF][A,CF][A,CF] | %20
 [_A,CF][A,CF][A,CF][A,CF] [G,B,DF][G,B,DF][G,B,DF][G,B,DF] | %21
!>(! [G,CE][G,CE][G,CE][G,CE] [^G,CE][G,CE][G,CE][G,CE]!>)! | %22
!p! [A,CE][A,CE][A,CE][A,CE] [CEB][CEB][CEB][CEB] | [CEA][CEA][CEA][CEA] [CFG][CFG][CFG][CFG] | %24
!<(! [CFA][CFA][CFA][CFA] [FAe][FAe][FAe]!<)![FAe] | [FAd][FAd][FAd][FAd] [Fcd][Fcd][Fcd][Fcd] | %26
 [FBd][FBd][FBd][FBd] [Bda][Bda][Bda][Bda] | [_Bdg][Bdg][Bdg][Bdg]"^rit." [A^cf][Acf][Acf][Acf] | %28
!<(! [_Acf][Acf][Acf][Acf] [GBe][GBe][GBe][FBd]!<)! | %29
!f! !>![EGc]"^a tempo"[EGc][EGc][EGc] [D^GB][DGB][DGB][DGB] | %30
 !>![CFA][CFA][CFA][CFA] !>![B,DFG][B,DFG][B,DFG][B,DFG] | C[G,C][G,C][G,C] [G,C][A,C][A,C][A,C] | %32
 [A,C][CG]!<(![CG][CG] [CG][Cc][Cc][Cc]!<)! | [Cc][CGc][CGc][CGc] [CGc][CAc][CAc][CAc] | %34
 [CAc][CG][CE]C z4 | z8 |] %36
V:4
 z4!mf! [C,,C,]4 | [A,,,A,,]4 [F,,,F,,]4 | [D,,,D,,]4 [G,,,G,,]4 | [C,,C,]4 [B,,,B,,]4 | %4
[M:4/4] [A,,,A,,]4 [G,,,G,,]4 | [F,,,F,,]4 [E,,,E,,]4 | [D,,,D,,]4 [C,,,C,,]4 | %7
 [B,,,B,,]4 [A,,,A,,]4 | [G,,,G,,]8- | [G,,,G,,]4 [A,,,A,,]4 | [^A,,,^A,,]4 [B,,,B,,]4 | %11
 [C,,C,]4!f! [E,,E,]4 | [A,,,A,,]4 [E,,E,]4 | [A,,,A,,]4 [^F,,^F,]4 | [B,,,B,,]4 [^F,,^F,]4 | %15
 [B,,,B,,]4 [G,,G,]4 | [G,,,G,,]4 [A,,,A,,]4 | [^A,,,^A,,]4 [B,,,B,,]4 | [C,,C,]4 [C,,,C,,]4 | %19
 [A,,,A,,]4 [F,,,F,,]4 | [D,,,D,,]4 [G,,,G,,]4 | [C,,C,]4 [B,,,B,,]4 |!p! [A,,,A,,]4 [G,,,G,,]4 | %23
 [F,,,F,,]4 [E,,,E,,]4 | [D,,,D,,]4 [C,,,C,,]4 | [B,,,B,,]4 [A,,,A,,]4 | %26
"^cresc." [G,,,G,,]4 [F,,,F,,]4 | [E,,,E,,]4 [A,,,A,,]4 | [D,,D,]4 [G,,G,]4 | %29
 !>![C,,C,]4 !>![E,,E,]4 | !>![F,,F,]4 !>![G,,G,]4 | %31
 z [E,,C,][E,,C,][E,,C,] [E,,C,][F,,C,][F,,C,][F,,C,] | %32
 [F,,C,][G,,E,][G,,E,][G,,E,] G,,[A,,F,][A,,F,][A,,F,] | %33
 [A,,F,][E,G,][E,G,][E,G,] [E,G,][F,A,][F,A,][F,A,] | %34
 [F,A,][E,G,][E,G,][C,E,]!f! [E,G,] z [D,G,]!f! z |!f! [E,G,] z z2 z4 |] %36
V:5
 x8 | x8 | x8 | x8 |[M:4/4] x8 | x8 | x8 | x8 | x8 | x8 | x8 | x8 | x8 | x8 | x8 | x8 | x8 | x8 | %18
 x8 | x8 | x8 | x8 | x8 | x8 | x8 | x8 | x8 | x8 | x8 | x8 | x8 | C,,8- | C,, x x2 x4 | %33
 x G,,3- G,,4 | G,,4 [G,,C,] z [G,,B,,] z | [C,,G,,C,] z z2 z4 |] %36

